korla/status/symbolic/orientation-portrait-symbolic.svg

<svg style="clip-rule:evenodd;fill-rule:evenodd;stroke-linejoin:round;stroke-miterlimit:2" version="1.1" viewBox="0 0 16 16" xmlns="http://www.w3.org/2000/svg">
 <path d="m3 14c0 1 1 1 1 1h8c1 0 1-1 1-1v-12c0-1-1-1-1-1h-8c-1 0-1 1-1 1v12z" style="fill-opacity:.3;fill:rgb(223,223,223)"/>
 <path d="m6 12v-8l4 4-4 4z" style="fill:rgb(223,223,223)"/>
</svg>

<svg xmlns="http://www.w3.org/2000/svg" width="16" height="16" version="1.1">
 <path style="fill:#dfdfdf" d="M 3,14 C 3,15 4,15 4,15 H 12 C 13,15 13,14 13,14 V 2 C 13,1 12,1 12,1 H 4 C 3,1 3,2 3,2 Z M 6,12 V 4 L 10,8 Z"/>
</svg>
